X:4241
T:Jesus Wants All Of His Children
M:4/4
L:1/4
K:D
"^I""^ii"F F "^iii""^IV"F "^V7""^IV"E|D "^vim7""^V"F B A|D|"^iim7""^V"d d A F|"^V7""^V"E3 z|E "^I""^V"F G A|"^iim7""^V"B c d F|"^ii""^V"E "^IV""^V"G "^vim7""^V"F "^iiim7""^ii"E|"^iim7""^V"D3 z|]

